findly-builder/apps/searchassist/src/assets/icons/editor/align-left.svg

<svg width="12" height="13" viewBox="0 0 12 13" fill="none" xmlns="http://www.w3.org/2000/svg">
<path d="M11.8105 12.354L11.8105 11.0882L0.418141 11.0882L0.41814 12.354L11.8105 12.354ZM8.64599 9.82236L8.64599 8.55653L0.418141 8.55653L0.418141 9.82236L8.64599 9.82236ZM11.8105 7.29071L11.8105 6.02489L0.418141 6.02489L0.418141 7.29071L11.8105 7.29071ZM8.64599 4.75907L8.64599 3.49324L0.418141 3.49324L0.418141 4.75907L8.64599 4.75907ZM11.8105 2.22742L11.8105 0.961597L0.418141 0.961596L0.418141 2.22742L11.8105 2.22742Z" fill="black"/>
</svg>

<svg width="12" height="13" fill="none" xmlns="http://www.w3.org/2000/svg"><path d="M11.81 12.354v-1.266H.418v1.266h11.393ZM8.646 9.822V8.557H.418v1.265h8.228Zm3.164-2.531V6.025H.418V7.29H11.81ZM8.646 4.759V3.493H.418V4.76h8.228Zm3.164-2.532V.962H.418v1.265H11.81Z" fill="#000"/></svg>
